X:55
T:The Glentown Reel
T:Glentown
T:Denis Murphy's?
T:Geoghan's?
D:Dolores Keane & Jimmy Faulkner (as Denis Murphy's?)
B:Bulmer and Sharpley (as Glentown)
B:Dave Mallinson, 100 Evergreen Irish Tunes, a third part inserted
between the two given here
Z:Gordon Turnbull
M:4/4
L:1/8
K:G
DGBG AGBG | DGBG AGEG | DGBG AGAB | deed B~G3 :|
Bdd^c d2 ef | g2 fg e~A3 | Bdef gfge | dBAc B~G3 :|

